images/stom.svg

<svg width="78" height="78" viewBox="0 0 78 78" fill="none" xmlns="http://www.w3.org/2000/svg">
<path d="M1.30054 1.30035H76.7005V18.2004H1.30054V1.30035Z" fill="#F9ADB1"/>
<path d="M70.8498 11.7005C69.2983 11.7005 67.8103 12.3168 66.7132 13.4139C65.6161 14.511 64.9998 15.999 64.9998 17.5505V18.2005C64.9998 16.4766 64.315 14.8233 63.096 13.6043C61.877 12.3853 60.2237 11.7005 58.4998 11.7005C56.7759 11.7005 55.1226 12.3853 53.9036 13.6043C52.6846 14.8233 51.9998 16.4766 51.9998 18.2005L40.0934 19.3911L40.2998 18.883L27.1861 14.4565C26.4122 15.5514 25.9977 16.8597 25.9998 18.2005C25.9998 16.4766 25.315 14.8233 24.096 13.6043C22.877 12.3853 21.2237 11.7005 19.4998 11.7005C17.7759 11.7005 16.1226 12.3853 14.9036 13.6043C13.6846 14.8233 12.9998 16.4766 12.9998 18.2005V17.5505C12.9998 15.999 12.3835 14.511 11.2864 13.4139C10.1893 12.3168 8.70132 11.7005 7.1498 11.7005C5.59829 11.7005 4.11032 12.3168 3.01323 13.4139C1.91614 14.511 1.2998 15.999 1.2998 17.5505C1.29979 22.2992 1.88221 27.03 3.034 31.637L6.4998 45.5005L12.0178 27.8428C12.6687 25.76 12.9998 23.5905 12.9998 21.4084V22.0818C12.9998 22.9122 13.1634 23.7345 13.4813 24.5017C13.7991 25.2689 14.265 25.9659 14.8523 26.553L19.2756 30.9762C19.3353 31.0359 19.4162 31.0695 19.5006 31.0695C19.585 31.0695 19.666 31.0359 19.7257 30.9762L24.1489 26.553C24.7361 25.966 25.202 25.2691 25.5198 24.5021C25.8377 23.735 26.0013 22.9129 26.0014 22.0826C26.0017 23.7587 26.6674 25.366 27.8523 26.5514L32.2756 30.9746C32.3052 31.0044 32.3404 31.028 32.3791 31.0441C32.4179 31.0602 32.4595 31.0684 32.5014 31.0684C32.5434 31.0684 32.585 31.0602 32.6237 31.0441C32.6625 31.028 32.6977 31.0044 32.7273 30.9746L37.1506 26.5514C38.3349 25.3657 39 23.7584 38.9998 22.0826C39 23.7587 39.6658 25.366 40.8507 26.5514L45.2739 30.9746C45.3035 31.0044 45.3387 31.028 45.3775 31.0441C45.4163 31.0602 45.4578 31.0684 45.4998 31.0684C45.5418 31.0684 45.5833 31.0602 45.6221 31.0441C45.6609 31.028 45.6961 31.0044 45.7257 30.9746L50.1489 26.5514C51.3338 25.366 51.9996 23.7587 51.9998 22.0826C51.9999 22.9129 52.1636 23.735 52.4814 24.5021C52.7993 25.2691 53.2651 25.966 53.8523 26.553L58.2756 30.9762C58.3352 31.0359 58.4162 31.0695 58.5006 31.0695C58.585 31.0695 58.666 31.0359 58.7257 30.9762L63.1489 26.553C63.7359 25.9658 64.2015 25.2687 64.5191 24.5015C64.8367 23.7343 65 22.9121 64.9998 22.0818V21.4084C64.9998 23.5907 65.3309 25.7604 65.9818 27.8434L71.4998 45.5005L74.9656 31.637C76.1174 27.03 76.6998 22.2992 76.6998 17.5505C76.6998 15.999 76.0835 14.511 74.9864 13.4139C73.8893 12.3168 72.4013 11.7005 70.8498 11.7005Z" fill="#E4E4E2"/>
<path d="M50.3466 9.10036C50.108 9.10042 49.874 9.03445 49.6706 8.90975C48.4817 8.18403 47.1158 7.80017 45.723 7.80036H45.2769C44.1939 7.79876 43.1233 8.0309 42.1382 8.48091C41.8249 8.62057 41.469 8.63072 41.1483 8.50915C40.8275 8.38759 40.5678 8.14415 40.4257 7.8319C40.2836 7.51965 40.2707 7.16391 40.3898 6.8422C40.5089 6.52048 40.7503 6.25889 41.0615 6.11442C42.3845 5.51004 43.8224 5.19826 45.2769 5.20036H45.723C47.5937 5.2003 49.4282 5.71601 51.0249 6.69081C51.2668 6.83855 51.4539 7.06134 51.5575 7.32525C51.6611 7.58916 51.6756 7.8797 51.5988 8.15261C51.522 8.42552 51.358 8.66584 51.132 8.83694C50.9059 9.00804 50.6301 9.10054 50.3466 9.10036Z" fill="#EEA5A9"/>
<path d="M57.1998 33.8004H59.7998V36.4004H57.1998V33.8004Z" fill="#C0F5F9"/>
<path d="M57.1998 39.0004H59.7998V44.2004H57.1998V39.0004Z" fill="#C0F5F9"/>
<path d="M38.9998 18.2005V19.5005L36.1999 20.3845C35.3134 20.6734 34.3666 20.7246 33.4541 20.533C32.5416 20.3414 31.6953 19.9137 30.9999 19.2925C30.9382 19.2357 30.8764 19.1772 30.8163 19.117L28.1123 16.413C27.5868 15.8872 27.2595 15.1958 27.186 14.456C27.9813 13.3272 29.1154 12.481 30.4239 12.04C31.7325 11.599 33.1474 11.5862 34.4637 12.0034C35.78 12.4206 36.9293 13.2462 37.7449 14.3604C38.5604 15.4747 39 16.8197 38.9998 18.2005Z" fill="#FBB540"/>
<path d="M33.7999 18.2005C34.5178 18.2005 35.0999 17.6185 35.0999 16.9005C35.0999 16.1825 34.5178 15.6005 33.7999 15.6005C33.0819 15.6005 32.4999 16.1825 32.4999 16.9005C32.4999 17.6185 33.0819 18.2005 33.7999 18.2005Z" fill="#DA922A"/>
<path d="M51.9999 18.2005H49.6924C49.2027 18.2004 48.7206 18.3213 48.2888 18.5523C47.8571 18.7833 47.4891 19.1174 47.2175 19.5249C46.7324 20.2535 46.0113 20.793 45.1754 21.0528C44.3394 21.3126 43.4396 21.2769 42.6269 20.9516L38.9999 19.5005V18.2005C39.0001 16.6198 39.5761 15.0934 40.6202 13.9066C41.6643 12.7198 43.105 11.9541 44.6728 11.7525C44.7264 11.746 44.7816 11.7395 44.8353 11.7346C44.8889 11.7298 44.9458 11.7233 44.9994 11.72C45.1018 11.7119 45.2025 11.707 45.3033 11.7037C45.3699 11.7021 45.4349 11.7005 45.4999 11.7005C45.8312 11.7007 46.162 11.7256 46.4895 11.7753C46.5968 11.7915 46.704 11.811 46.8096 11.8321C47.1237 11.8979 47.4327 11.9858 47.7343 12.0954C47.8334 12.1311 47.9325 12.1701 48.0284 12.2108C49.205 12.7094 50.209 13.5431 50.9152 14.6082C51.6213 15.6733 51.9986 16.9226 51.9999 18.2005Z" fill="#FBB540"/>
<path d="M44.1998 18.2005C44.9178 18.2005 45.4998 17.6185 45.4998 16.9005C45.4998 16.1825 44.9178 15.6005 44.1998 15.6005C43.4818 15.6005 42.8998 16.1825 42.8998 16.9005C42.8998 17.6185 43.4818 18.2005 44.1998 18.2005Z" fill="#DA922A"/>
<path d="M53.2998 49.4004C52.955 49.4004 52.6244 49.2635 52.3806 49.0197C52.1368 48.7759 51.9998 48.4452 51.9998 48.1004V23.4005C51.9998 23.1747 52.0586 22.9529 52.1703 22.7568C52.2821 22.5607 52.4429 22.397 52.6371 22.282L55.8608 20.3716C55.8963 20.2735 55.9077 20.1682 55.8939 20.0648C55.8802 19.9613 55.8417 19.8627 55.7817 19.7772C55.7218 19.6918 55.6422 19.622 55.5496 19.5738C55.457 19.5257 55.3542 19.5005 55.2498 19.5005H48.0998C47.755 19.5005 47.4244 19.3635 47.1806 19.1197C46.9368 18.8759 46.7998 18.5452 46.7998 18.2005C46.7998 17.8557 46.9368 17.525 47.1806 17.2812C47.4244 17.0374 47.755 16.9005 48.0998 16.9005H55.2498C55.8534 16.9005 56.445 17.0685 56.9584 17.3858C57.4719 17.7031 57.8868 18.1572 58.1567 18.697C58.4266 19.2369 58.5409 19.8412 58.4867 20.4423C58.4325 21.0434 58.2119 21.6176 57.8498 22.1005C57.7474 22.2368 57.6193 22.3517 57.4726 22.4386L54.5998 24.1413V48.1004C54.5998 48.4452 54.4628 48.7759 54.219 49.0197C53.9752 49.2635 53.6446 49.4004 53.2998 49.4004Z" fill="#6CBAE5"/>
<path d="M53.2998 48.1003C54.3341 48.1003 55.3261 48.5112 56.0575 49.2426C56.7889 49.974 57.1998 50.966 57.1998 52.0003V76.7003H49.3998V52.0003C49.3998 50.966 49.8107 49.974 50.5421 49.2426C51.2735 48.5112 52.2654 48.1003 53.2998 48.1003Z" fill="#428DC5"/>
<path d="M53.2998 59.8004H57.1998V62.4004H53.2998V59.8004Z" fill="#3775A4"/>
<path d="M53.2998 65.0004H57.1998V67.6004H53.2998V65.0004Z" fill="#3775A4"/>
<path d="M53.2998 70.2005H57.1998V72.8005H53.2998V70.2005Z" fill="#3775A4"/>
<path d="M49.3998 55.9003H57.1998V52.0003C57.1998 50.966 56.7889 49.974 56.0575 49.2426C55.3261 48.5112 54.3341 48.1003 53.2998 48.1003C52.2654 48.1003 51.2735 48.5112 50.5421 49.2426C49.8107 49.974 49.3998 50.966 49.3998 52.0003V55.9003Z" fill="#4799CF"/>
<path d="M57.1998 33.8004H59.7998V36.4004H57.1998V33.8004Z" fill="black"/>
<path d="M57.1998 39.0004H59.7998V44.2004H57.1998V39.0004Z" fill="black"/>
<path d="M76.7 4.06289e-08H1.3C0.955218 4.06289e-08 0.624558 0.136964 0.380761 0.380761C0.136964 0.624558 0 0.955218 0 1.3V18.2C0 18.2392 0.00243739 18.2777 0.00584989 18.3159C0.0653977 22.9143 0.658427 27.4902 1.77304 31.9519L5.23884 45.8153C5.30748 46.0904 5.46421 46.3355 5.68512 46.5133C5.90603 46.6911 6.17901 46.7918 6.46246 46.8H6.50032C6.77731 46.7999 7.04704 46.7114 7.27019 46.5473C7.49334 46.3832 7.65824 46.1521 7.74085 45.8877L13.2589 28.2301C13.3768 27.8528 13.481 27.4721 13.5791 27.0902C13.6929 27.2202 13.8092 27.3478 13.9323 27.4709L18.3557 31.8942C18.6594 32.1973 19.0709 32.3676 19.5 32.3676C19.9291 32.3676 20.3406 32.1973 20.6443 31.8942L25.0677 27.4709C25.4147 27.1238 25.7278 26.7444 26.0026 26.3377C26.2748 26.7445 26.5859 27.1238 26.9316 27.4703L31.3547 31.8934C31.6587 32.1968 32.0708 32.3673 32.5003 32.3673C32.9299 32.3673 33.3419 32.1968 33.6459 31.8934L38.069 27.4703C38.4156 27.1227 38.7274 26.7421 39 26.3339C39.2728 26.7421 39.5848 27.1227 39.9316 27.4703L44.3547 31.8934C44.6587 32.1968 45.0708 32.3673 45.5003 32.3673C45.9299 32.3673 46.3419 32.1968 46.6459 31.8934L51.069 27.4703C51.4147 27.1238 51.7259 26.7445 51.998 26.3377L52.0006 26.3414V46.9646C50.885 47.2542 49.8969 47.9055 49.1911 48.8167C48.4852 49.7279 48.1015 50.8474 48.1 52V76.7C48.1 77.0448 48.237 77.3754 48.4808 77.6192C48.7246 77.863 49.0552 78 49.4 78H57.2C57.5448 78 57.8754 77.863 58.1192 77.6192C58.363 77.3754 58.5 77.0448 58.5 76.7V52C58.4985 50.8475 58.1149 49.728 57.4092 48.8169C56.7035 47.9057 55.7155 47.2543 54.6 46.9646V29.1384L57.3557 31.894C57.6594 32.1972 58.0709 32.3674 58.5 32.3674C58.9291 32.3674 59.3406 32.1972 59.6443 31.894L64.0677 27.4708C64.1907 27.3476 64.3074 27.2199 64.4208 27.09C64.5183 27.4719 64.6232 27.8527 64.7411 28.23L70.2591 45.8877C70.3418 46.1522 70.5067 46.3833 70.7299 46.5474C70.9531 46.7115 71.2229 46.8 71.5 46.8H71.5379C71.8212 46.7918 72.0942 46.6912 72.3151 46.5135C72.536 46.3358 72.6927 46.0908 72.7615 45.8157L76.2273 31.9524C77.3419 27.4909 77.9349 22.9152 77.9945 18.317C77.9979 18.2785 78.0003 18.2398 78.0003 18.2005V1.3C78.0003 1.12925 77.9667 0.960181 77.9013 0.802436C77.836 0.644692 77.7402 0.501367 77.6194 0.380646C77.4987 0.259926 77.3553 0.164175 77.1976 0.0988632C77.0398 0.0335512 76.8707 -4.26458e-05 76.7 4.06289e-08ZM75.4 2.6V12.0386C74.6225 11.3954 73.7174 10.9242 72.7445 10.6563C71.7716 10.3883 70.753 10.3297 69.7557 10.4842C68.7585 10.6387 67.8054 11.0029 66.9592 11.5527C66.113 12.1025 65.393 12.8255 64.8466 13.6739C64.1134 12.6435 63.1404 11.807 62.0116 11.2368C60.8828 10.6666 59.6321 10.3798 58.3676 10.4011C57.1032 10.4224 55.8629 10.7513 54.754 11.3592C53.645 11.9672 52.7008 12.8359 52.0028 13.8905C51.714 13.4571 51.383 13.0533 51.0148 12.6851C50.1981 11.8677 49.2099 11.2422 48.1217 10.8537C47.0335 10.4652 45.8725 10.3235 44.7229 10.4389C43.5732 10.5543 42.4636 10.9238 41.4743 11.5208C40.485 12.1177 39.6408 12.9272 39.0028 13.8905C38.714 13.4571 38.383 13.0533 38.0148 12.6851C37.2108 11.8812 36.2409 11.2627 35.1728 10.873C34.1047 10.4833 32.9644 10.3319 31.8317 10.4292C30.6989 10.5265 29.6011 10.8703 28.6152 11.4364C27.6293 12.0026 26.779 12.7774 26.124 13.7067C26.1193 13.7134 26.1149 13.7202 26.1102 13.7269L26.1032 13.7373C26.0674 13.7886 26.0328 13.8403 25.9984 13.8921C25.3005 12.8373 24.3563 11.9682 23.2473 11.36C22.1384 10.7517 20.898 10.4227 19.6333 10.4012C18.3687 10.3797 17.1179 10.6664 15.9889 11.2366C14.8599 11.8068 13.8867 12.6433 13.1534 13.6739C12.607 12.8255 11.887 12.1025 11.0408 11.5527C10.1946 11.0029 9.24148 10.6387 8.24425 10.4842C7.24702 10.3297 6.22837 10.3883 5.25546 10.6563C4.28256 10.9242 3.37751 11.3954 2.6 12.0386V2.6H75.4ZM55.9 20.15C55.8999 20.2254 55.8867 20.3003 55.861 20.3712L53.3 21.8887V19.5H55.25C55.4224 19.5 55.5877 19.5685 55.7096 19.6904C55.8315 19.8123 55.9 19.9776 55.9 20.15ZM48.1 16.9C47.7879 16.9003 47.4863 17.0129 47.2504 17.2173C47.0144 17.4216 46.8599 17.7039 46.8149 18.0128C46.5571 18.2478 46.3288 18.5134 46.1352 18.8037C45.8138 19.2822 45.3384 19.6364 44.7878 19.8073C44.2373 19.9783 43.6449 19.9557 43.109 19.7434L40.3 18.6199V18.2162C40.3 18.2109 40.3 18.2058 40.3 18.2C40.3 18.1941 40.3 18.1932 40.3 18.1896C40.3031 16.925 40.7669 15.7049 41.6045 14.7575C42.4421 13.8101 43.5962 13.2004 44.8509 13.0423C46.1055 12.8842 47.3748 13.1887 48.4212 13.8987C49.4676 14.6088 50.2195 15.6757 50.5362 16.9H48.1ZM37.7 18.5471L35.8093 19.1441C35.1411 19.3643 34.4269 19.4056 33.7377 19.2639C33.0486 19.1222 32.4086 18.8025 31.8815 18.3365C31.8328 18.2913 31.784 18.245 31.7353 18.1972L28.547 15.0091L28.5308 14.8426C29.2189 14.0296 30.14 13.4475 31.1696 13.175C32.1993 12.9025 33.2878 12.9528 34.2879 13.319C35.2881 13.6852 36.1517 14.3497 36.7619 15.2227C37.3721 16.0956 37.6996 17.1349 37.7 18.2V18.5471ZM10.7772 27.4545L6.6391 40.6963L4.29536 31.3212C3.16986 26.8173 2.6005 22.1924 2.6 17.55C2.6 16.3433 3.07937 15.186 3.93266 14.3327C4.78595 13.4794 5.94326 13 7.15 13C8.35673 13 9.51404 13.4794 10.3673 14.3327C11.2206 15.186 11.7 16.3433 11.7 17.55V21.4079C11.7004 23.4585 11.3893 25.4973 10.7772 27.4544V27.4545ZM19.5 29.3616L15.7709 25.6323C15.3032 25.1671 14.9323 24.6137 14.6798 24.0042C14.4273 23.3947 14.2982 22.7412 14.3 22.0815V18.2C14.3 16.8209 14.8479 15.4982 15.823 14.523C16.7982 13.5479 18.1209 13 19.5 13C20.8791 13 22.2018 13.5479 23.177 14.523C24.1521 15.4982 24.7 16.8209 24.7 18.2V22.0815C24.7018 22.7412 24.5727 23.3947 24.3202 24.0042C24.0677 24.6137 23.6968 25.1671 23.229 25.6323L19.5 29.3616ZM36.2297 25.6316L32.5 29.3616L28.7703 25.6316C27.8321 24.6882 27.3038 23.4128 27.3 22.0823V18.2C27.3008 17.9623 27.3178 17.7248 27.3507 17.4894L29.8972 20.0362C29.9697 20.1084 30.0443 20.1792 30.1218 20.2507C31.3314 21.3462 32.9072 21.9491 34.539 21.9408C35.2353 21.9404 35.9274 21.8337 36.5914 21.6242L37.7 21.2737V22.0823C37.6962 23.4128 37.1679 24.6882 36.2297 25.6316ZM50.7 22.0823C50.6962 23.4128 50.1679 24.6882 49.2297 25.6316L45.5 29.3616L41.7703 25.6316C40.8321 24.6882 40.3038 23.4128 40.3 22.0823V21.4201L42.1434 22.1575C42.7426 22.3971 43.3821 22.52 44.0274 22.5197C44.8713 22.5206 45.7024 22.3135 46.4474 21.917C47.1923 21.5204 47.8281 20.9465 48.2986 20.2459C48.4513 20.0162 48.6586 19.8279 48.9018 19.6977C49.145 19.5676 49.4166 19.4997 49.6925 19.5H50.7V22.0823ZM50.7 75.4V57.2H55.9V59.8H53.3V62.4H55.9V65H53.3V67.6H55.9V70.2H53.3V72.8H55.9V75.4H50.7ZM55.9 52V54.6H50.7V52C50.7 51.3104 50.9739 50.6491 51.4615 50.1615C51.9491 49.6739 52.6104 49.4 53.3 49.4C53.9896 49.4 54.6509 49.6739 55.1385 50.1615C55.6261 50.6491 55.9 51.3104 55.9 52ZM63.7 22.0815C63.7018 22.7412 63.5727 23.3947 63.3202 24.0042C63.0677 24.6137 62.6968 25.1671 62.229 25.6323L58.5 29.3616L54.7709 25.6323C54.7122 25.5737 54.6552 25.5141 54.6 25.4535V24.1415L57.4727 22.4391C57.6195 22.3519 57.7477 22.2367 57.85 22.1C58.2054 21.6265 58.4246 21.0648 58.4839 20.4757C58.5431 19.8866 58.4402 19.2926 58.1861 18.7578C57.9321 18.223 57.5367 17.7678 57.0427 17.4415C56.5487 17.1152 55.9748 16.9302 55.3832 16.9065C55.339 16.902 55.2945 16.8999 55.25 16.9H53.4646C53.7806 15.6741 54.533 14.6056 55.5807 13.8948C56.6283 13.1841 57.8993 12.88 59.1552 13.0395C60.4111 13.199 61.5657 13.8112 62.4024 14.7613C63.2391 15.7113 63.7005 16.934 63.7 18.2V22.0815ZM71.3609 40.6963L67.2228 27.4545C66.6107 25.4974 66.2995 23.4586 66.3 21.4079V17.55C66.3 16.3433 66.7794 15.186 67.6327 14.3327C68.4859 13.4794 69.6433 13 70.85 13C72.0567 13 73.214 13.4794 74.0673 14.3327C74.9206 15.186 75.4 16.3433 75.4 17.55C75.3995 22.1924 74.8301 26.8173 73.7046 31.3212L71.3609 40.6963Z" fill="black"/>
<path d="M42.1382 8.48091C43.1233 8.0309 44.1939 7.79876 45.2769 7.80036H45.723C47.1158 7.80022 48.4818 8.18414 49.6706 8.90991C49.9646 9.08334 50.3151 9.13414 50.6463 9.05134C50.9775 8.96854 51.2628 8.75878 51.4407 8.46737C51.6185 8.17596 51.6746 7.82629 51.5968 7.49389C51.519 7.16148 51.3136 6.87302 51.0249 6.69081C49.4282 5.71601 47.5937 5.2003 45.723 5.20036H45.2769C43.8224 5.19826 42.3845 5.51004 41.0615 6.11442C40.7503 6.25889 40.5089 6.52048 40.3898 6.8422C40.2707 7.16391 40.2836 7.51965 40.4257 7.8319C40.5678 8.14415 40.8275 8.38759 41.1483 8.50915C41.469 8.63072 41.8249 8.62057 42.1382 8.48091Z" fill="black"/>
<path d="M33.7999 18.2005C34.5178 18.2005 35.0999 17.6185 35.0999 16.9005C35.0999 16.1825 34.5178 15.6005 33.7999 15.6005C33.0819 15.6005 32.4999 16.1825 32.4999 16.9005C32.4999 17.6185 33.0819 18.2005 33.7999 18.2005Z" fill="black"/>
<path d="M44.1998 18.2005C44.9178 18.2005 45.4998 17.6185 45.4998 16.9005C45.4998 16.1825 44.9178 15.6005 44.1998 15.6005C43.4818 15.6005 42.8998 16.1825 42.8998 16.9005C42.8998 17.6185 43.4818 18.2005 44.1998 18.2005Z" fill="black"/>
</svg>

<svg width="78" height="78" fill="none" xmlns="http://www.w3.org/2000/svg"><path d="M1.3 1.3h75.4v16.9H1.3V1.3z" fill="#F9ADB1"/><path d="M70.85 11.7A5.85 5.85 0 0065 17.55v.65a6.5 6.5 0 10-13 0l-11.907 1.191.207-.508-13.114-4.426A6.469 6.469 0 0026 18.2a6.5 6.5 0 10-13 0v-.65a5.85 5.85 0 10-11.7 0c0 4.748.582 9.479 1.734 14.086L6.5 45.501l5.518-17.658c.65-2.083.982-4.253.982-6.435v.674a6.322 6.322 0 001.852 4.471l4.424 4.423a.318.318 0 00.45 0l4.423-4.423A6.322 6.322 0 0026 22.083c0 1.676.666 3.283 1.851 4.468l4.424 4.424a.318.318 0 00.451 0l4.424-4.424A6.322 6.322 0 0039 22.083c0 1.676.666 3.283 1.85 4.468l4.424 4.424a.317.317 0 00.452 0l4.423-4.424a6.322 6.322 0 001.85-4.468 6.323 6.323 0 001.853 4.47l4.424 4.423a.318.318 0 00.45 0l4.423-4.423a6.322 6.322 0 001.85-4.471v-.674c0 2.183.332 4.352.983 6.435L71.5 45.501l3.466-13.864A58.078 58.078 0 0076.7 17.55a5.85 5.85 0 00-5.85-5.85z" fill="#E4E4E2"/><path d="M50.347 9.1c-.239 0-.473-.066-.676-.19a7.575 7.575 0 00-3.948-1.11h-.446a7.527 7.527 0 00-3.139.68 1.3 1.3 0 01-1.076-2.366 10.11 10.11 0 014.215-.914h.446c1.87 0 3.705.516 5.302 1.49a1.3 1.3 0 01-.678 2.41z" fill="#EEA5A9"/><path d="M57.2 33.8h2.6v2.6h-2.6v-2.6zM57.2 39h2.6v5.2h-2.6V39z" fill="#C0F5F9"/><path d="M39 18.2v1.3l-2.8.884a5.328 5.328 0 01-5.2-1.091 6.035 6.035 0 01-.184-.176l-2.704-2.704a3.218 3.218 0 01-.926-1.957A6.5 6.5 0 0139 18.201z" fill="#FBB540"/><path d="M33.8 18.2a1.3 1.3 0 100-2.6 1.3 1.3 0 000 2.6z" fill="#DA922A"/><path d="M52 18.2h-2.308a2.974 2.974 0 00-2.474 1.325 3.813 3.813 0 01-4.591 1.427L39 19.5v-1.3a6.502 6.502 0 015.835-6.465c.054-.005.11-.012.164-.015a6.56 6.56 0 01.304-.016c.067-.002.132-.004.197-.004a6.622 6.622 0 011.31.132 6.773 6.773 0 011.218.379A6.512 6.512 0 0152 18.2z" fill="#FBB540"/><path d="M44.2 18.2a1.3 1.3 0 100-2.6 1.3 1.3 0 000 2.6z" fill="#DA922A"/><path d="M53.3 49.4a1.3 1.3 0 01-1.3-1.3V23.4a1.3 1.3 0 01.637-1.118l3.224-1.91a.65.65 0 00-.611-.872H48.1a1.3 1.3 0 010-2.6h7.15a3.25 3.25 0 012.6 5.2c-.103.137-.23.252-.377.339L54.6 24.14v23.96a1.3 1.3 0 01-1.3 1.3z" fill="#6CBAE5"/><path d="M53.3 48.1a3.9 3.9 0 013.9 3.9v24.7h-7.8V52a3.9 3.9 0 013.9-3.9z" fill="#428DC5"/><path d="M53.3 59.8h3.9v2.6h-3.9v-2.6zM53.3 65h3.9v2.6h-3.9V65zM53.3 70.2h3.9v2.6h-3.9v-2.6z" fill="#3775A4"/><path d="M49.4 55.9h7.8V52a3.9 3.9 0 00-7.8 0v3.9z" fill="#4799CF"/><path d="M57.2 33.8h2.6v2.6h-2.6v-2.6zM57.2 39h2.6v5.2h-2.6V39z" fill="#000"/><path d="M76.7 0H1.3A1.3 1.3 0 000 1.3v16.9c0 .04.002.078.006.116.06 4.598.652 9.174 1.767 13.636l3.466 13.863a1.3 1.3 0 001.223.985H6.5a1.3 1.3 0 001.24-.912L13.26 28.23c.118-.377.222-.758.32-1.14.114.13.23.258.353.38l4.424 4.424a1.62 1.62 0 002.288 0l4.424-4.423c.347-.347.66-.727.935-1.133.272.406.583.786.929 1.132l4.423 4.423a1.622 1.622 0 002.29 0l4.424-4.423A7.54 7.54 0 0039 26.334c.273.408.585.789.932 1.136l4.423 4.423a1.622 1.622 0 002.29 0l4.424-4.423c.346-.346.657-.726.929-1.132l.003.003v20.624A5.21 5.21 0 0048.1 52v24.7a1.3 1.3 0 001.3 1.3h7.8a1.3 1.3 0 001.3-1.3V52a5.21 5.21 0 00-3.9-5.035V29.138l2.756 2.756a1.62 1.62 0 002.288 0l4.424-4.423c.123-.123.24-.251.353-.381.097.382.202.763.32 1.14l5.518 17.658a1.3 1.3 0 001.241.912h.038a1.3 1.3 0 001.224-.984l3.465-13.864a59.435 59.435 0 001.767-13.635 1.32 1.32 0 00.006-.116V1.3A1.3 1.3 0 0076.7 0zm-1.3 2.6v9.439a7.14 7.14 0 00-10.553 1.635 7.79 7.79 0 00-12.844.216 7.9 7.9 0 00-.988-1.205 7.794 7.794 0 00-12.012 1.205 7.801 7.801 0 00-12.879-.184l-.014.02-.007.011-.105.155a7.79 7.79 0 00-12.845-.218A7.14 7.14 0 002.6 12.039V2.6h72.8zM55.9 20.15c0 .075-.013.15-.039.221L53.3 21.89V19.5h1.95a.65.65 0 01.65.65zm-7.8-3.25a1.3 1.3 0 00-1.285 1.113c-.258.235-.486.5-.68.79a2.525 2.525 0 01-3.026.94L40.3 18.62v-.404-.016-.01a5.2 5.2 0 0110.236-1.29H48.1zm-10.4 1.647l-1.89.597a4.027 4.027 0 01-4.075-.947l-3.188-3.188-.016-.166A5.2 5.2 0 0137.7 18.2v.347zm-26.923 8.907L6.64 40.697l-2.344-9.375A56.828 56.828 0 012.6 17.55a4.55 4.55 0 019.1 0v3.858c0 2.05-.31 4.09-.923 6.046zm8.723 1.908l-3.73-3.73a4.99 4.99 0 01-1.47-3.55V18.2a5.2 5.2 0 0110.4 0v3.881a4.988 4.988 0 01-1.471 3.551l-3.729 3.73zm16.73-3.73l-3.73 3.73-3.73-3.73a5.054 5.054 0 01-1.47-3.55V18.2c0-.238.018-.475.05-.71l2.547 2.546a6.53 6.53 0 004.642 1.905c.696 0 1.388-.107 2.052-.317l1.109-.35v.808a5.054 5.054 0 01-1.47 3.55zm14.47-3.55a5.054 5.054 0 01-1.47 3.55l-3.73 3.73-3.73-3.73a5.054 5.054 0 01-1.47-3.55v-.662l1.843.737c.6.24 1.24.363 1.884.363a5.14 5.14 0 004.272-2.274 1.672 1.672 0 011.394-.746H50.7v2.582zm0 53.318V57.2h5.2v2.6h-2.6v2.6h2.6V65h-2.6v2.6h2.6v2.6h-2.6v2.6h2.6v2.6h-5.2zM55.9 52v2.6h-5.2V52a2.6 2.6 0 115.2 0zm7.8-29.919a4.988 4.988 0 01-1.471 3.551l-3.729 3.73-3.73-3.73a5.213 5.213 0 01-.17-.179v-1.311l2.873-1.703c.147-.087.275-.202.377-.339a3.248 3.248 0 00-2.467-5.194 1.287 1.287 0 00-.133-.006h-1.785A5.2 5.2 0 0163.7 18.2v3.881zm7.66 18.615l-4.137-13.241a20.24 20.24 0 01-.923-6.047V17.55a4.55 4.55 0 019.1 0c0 4.642-.57 9.267-1.695 13.771l-2.344 9.375z" fill="#000"/><path d="M42.138 8.48a7.527 7.527 0 013.139-.68h.446c1.393 0 2.759.384 3.948 1.11a1.3 1.3 0 001.354-2.22 10.174 10.174 0 00-5.302-1.49h-.446a10.11 10.11 0 00-4.215.914 1.3 1.3 0 001.076 2.367zM33.8 18.2a1.3 1.3 0 100-2.6 1.3 1.3 0 000 2.6zM44.2 18.2a1.3 1.3 0 100-2.6 1.3 1.3 0 000 2.6z" fill="#000"/></svg>
